!!!OTL: "Die Versuchung" FEINSLIEBCHEN DU SOLLST MIR NICHT BARFUSS GEHN
!!!ARE: Europa, Mitteleuropa, Deutschland, Nord - Deutschland
!!!SCT: Z1055
!!!YEM: Copyright 1995, estate of Helmut Schaffrath.
**kern
*ICvox
*Ivox
*M2/4
*k[]
*a:
{8e
=1
8e
8a
8a
8g#
=2
4a
8a
8b
=3
8ccn
8gn
4gn
=4
4gn}
{8a
8b
=5
4ccn
8e
8e
=6
4fn
8e
8d
=7
4.e
8d
=8
4cn
4r}
=9
{4gn
8gn
8e
=10
4gn
4r
=11
4a
8ccn
8b
=12
4ccn}
{8ccn
8ee
=13
4dd
8ccn
8ccn
=14
4b
8a
8a
=15
4.e
8g#
=16
4a
8r}
==
!!!AGN: Romanze, Ballade
!!!ONB: ESAC (Essen Associative Code) Database: ZUCCAL
!!!AMT: simple duple
!!!AIN: vox
!!!EED: Helmut Schaffrath
!!!EEV: 1.0
*-
